Страховая/img/svg/doctor.svg

<svg width="100" height="94" viewBox="0 0 100 94" fill="none" xmlns="http://www.w3.org/2000/svg">
<path d="M98.5597 73.3068C90.8284 99.9539 74.7894 95.119 45.133 89.9529C26.0893 86.6356 0 75.8504 0 46.4168C0 16.9831 15.4295 5 45.133 5C74.8364 5 107.271 43.2818 98.5597 73.3068Z" fill="#5FB5BF" fill-opacity="0.12"/>
<g clip-path="url(#clip0)">
<path d="M71.3211 51.6292H65.5927V45.0128C70.9044 41.9461 74.1791 36.2808 74.1854 30.1474C77.3491 30.1419 79.9094 27.5727 79.9036 24.4088C79.9001 22.37 78.8131 20.4867 77.0496 19.4639C76.9936 17.985 76.7823 16.5162 76.4195 15.0816C79.9786 12.2342 80.5558 7.04061 77.7084 3.48145C74.861 -0.0777201 69.6674 -0.654863 66.1082 2.19254C56.2436 -2.83794 44.1689 1.08086 39.1386 10.9455C37.6897 13.787 36.9394 16.9331 36.9503 20.1226V20.9246C34.2293 22.5388 33.3321 26.053 34.9463 28.774C35.9676 30.4954 37.8132 31.5591 39.8146 31.5796H39.8862C40.3584 37.1815 43.5408 42.1983 48.4073 45.0128V51.6292H42.6788C33.9785 51.6292 26.9255 58.6822 26.9255 67.3824V86H29.7898V67.3824C29.7932 61.3702 33.9528 56.1588 39.8146 54.8228V67.5829C36.7513 68.3738 34.9092 71.4984 35.7001 74.5616C36.491 77.6249 39.6155 79.467 42.6788 78.6761C45.7421 77.8852 47.5842 74.7607 46.7933 71.6974C46.2724 69.6796 44.6967 68.1039 42.6788 67.5829V54.4934H43.3949L55.8543 71.106C56.3289 71.7388 57.2264 71.8669 57.8592 71.3924C57.9677 71.3109 58.0642 71.2144 58.1457 71.106L70.6051 54.4934H71.3211V66.0792C67.19 66.7776 64.1649 70.3534 64.1606 74.543V77.4073C64.1606 78.1981 64.8018 78.8394 65.5927 78.8394H69.889V75.9751H67.0248V74.543C67.0248 71.3793 69.5895 68.8146 72.7533 68.8146C75.917 68.8146 78.4817 71.3793 78.4817 74.543V75.9751H75.6175V78.8394H79.9138C80.7047 78.8394 81.346 78.1981 81.346 77.4073V74.543C81.3417 70.3534 78.3165 66.7776 74.1854 66.0792V54.8228C80.0472 56.1588 84.207 61.3702 84.2102 67.3824V86H87.0744V67.3824C87.0744 58.6822 80.0214 51.6292 71.3211 51.6292ZM39.8146 28.7153C38.2326 28.7153 36.9503 27.433 36.9503 25.8511C36.9503 24.2691 38.2326 22.9869 39.8146 22.9869V28.7153ZM44.1109 73.1109C44.1109 74.6929 42.8286 75.9751 41.2467 75.9751C39.6647 75.9751 38.3825 74.6929 38.3825 73.1109C38.3825 71.529 39.6647 70.2467 41.2467 70.2467C42.8286 70.2467 44.1109 71.5291 44.1109 73.1109ZM77.0496 24.419C77.0496 26.0009 75.7673 27.2832 74.1854 27.2832V21.5547C75.7673 21.5547 77.0496 22.8372 77.0496 24.419ZM71.6648 2.93724C74.6354 2.94512 77.0417 5.35143 77.0496 8.322C77.0537 9.78204 76.4583 11.18 75.4027 12.1887C73.9584 8.85832 71.6369 5.98246 68.686 3.86812C69.5646 3.26913 70.6015 2.94494 71.6648 2.93724ZM57 2.93724C65.9589 2.90609 73.4389 9.7627 74.1854 18.6905H73.3261C69.9792 15.7996 67.3262 12.1921 65.564 8.13582C65.2717 7.40097 64.4387 7.04222 63.7039 7.33455C63.2744 7.50551 62.9538 7.87321 62.843 8.322C60.6662 17.0149 44.8986 19.4352 39.9292 19.9794C40.0072 10.5887 47.6091 2.99954 57 2.93724ZM42.6788 30.1474V22.5143C48.8512 21.5834 60.0647 19.0056 64.2465 12.1028C66.0391 15.4181 68.439 18.367 71.3211 20.7957V30.1474C71.3211 38.0568 64.9094 44.4686 57 44.4686C49.0906 44.4686 42.6788 38.0568 42.6788 30.1474ZM57 67.855L46.9752 54.4934H49.8394C50.6303 54.4934 51.2715 53.8522 51.2715 53.0613V46.3304C54.9735 47.6669 59.0264 47.6669 62.7284 46.3304V53.0613C62.7284 53.8522 63.3697 54.4934 64.1606 54.4934H67.0248L57 67.855Z" fill="#5FB5BF"/>
<path d="M48.4073 27.2833C49.9891 27.2833 51.2715 26.0009 51.2715 24.419C51.2715 22.8372 49.9891 21.5548 48.4073 21.5548C46.8254 21.5548 45.543 22.8372 45.543 24.419C45.543 26.0009 46.8254 27.2833 48.4073 27.2833Z" fill="#5FB5BF"/>
<path d="M65.5926 27.2833C67.1745 27.2833 68.4569 26.0009 68.4569 24.419C68.4569 22.8372 67.1745 21.5548 65.5926 21.5548C64.0108 21.5548 62.7284 22.8372 62.7284 24.419C62.7284 26.0009 64.0108 27.2833 65.5926 27.2833Z" fill="#5FB5BF"/>
<path d="M61.7116 33.427C60.1508 34.9986 58.0263 35.8804 55.8113 35.8759H54.1357V38.7402H55.8113C58.7878 38.7507 61.6449 37.5698 63.7452 35.4606L61.7116 33.427Z" fill="#5FB5BF"/>
<path d="M58.4321 33.0117V30.1474H56.1264L58.4321 23.4451L55.7111 22.5286L52.8468 31.1213C52.7027 31.5582 52.7774 32.0376 53.0473 32.4102C53.2996 32.7659 53.7002 32.9873 54.1357 33.0117H58.4321Z" fill="#5FB5BF"/>
</g>
<defs>
<clipPath id="clip0">
<rect width="86" height="86" fill="white" transform="translate(14)"/>
</clipPath>
</defs>
</svg>

<svg width="100" height="94" fill="none" xmlns="http://www.w3.org/2000/svg"><path d="M98.56 73.307c-7.732 26.647-23.77 21.812-53.427 16.646C26.089 86.636 0 75.85 0 46.417 0 16.983 15.43 5 45.133 5c29.703 0 62.138 38.282 53.427 68.307z" fill="#5FB5BF" fill-opacity=".12"/><g clip-path="url(#clip0)" fill="#5FB5BF"><path d="M71.321 51.63h-5.728v-6.617a17.186 17.186 0 008.592-14.866 5.728 5.728 0 002.865-10.683 21.136 21.136 0 00-.63-4.382 8.253 8.253 0 00-10.312-12.89c-9.864-5.03-21.94-1.111-26.97 8.753a20.052 20.052 0 00-2.188 9.178v.802a5.728 5.728 0 002.865 10.655h.071a17.186 17.186 0 008.521 13.433v6.616H42.68c-8.7 0-15.754 7.053-15.754 15.753V86h2.865V67.382a12.89 12.89 0 0110.025-12.56v12.76a5.729 5.729 0 102.864 0V54.494h.716l12.46 16.613a1.432 1.432 0 002.29 0l12.46-16.613h.716V66.08a8.593 8.593 0 00-7.16 8.464v2.864c0 .791.64 1.432 1.432 1.432h4.296v-2.864h-2.864v-1.432a5.728 5.728 0 0111.457 0v1.432h-2.864v2.864h4.296c.79 0 1.432-.64 1.432-1.432v-2.864a8.593 8.593 0 00-7.16-8.464V54.823a12.889 12.889 0 0110.024 12.56V86h2.864V67.382c0-8.7-7.053-15.753-15.753-15.753zM39.815 28.714a2.864 2.864 0 110-5.728v5.728zm4.296 44.396a2.864 2.864 0 11-5.728 0 2.864 2.864 0 015.728 0zM77.05 24.419a2.864 2.864 0 01-2.865 2.864v-5.728a2.864 2.864 0 012.865 2.864zM71.665 2.937a5.4 5.4 0 015.385 5.385 5.328 5.328 0 01-1.647 3.867 20.05 20.05 0 00-6.717-8.32 5.357 5.357 0 012.979-.932zM57 2.937c8.959-.03 16.439 6.826 17.185 15.754h-.859a29.457 29.457 0 01-7.762-10.555 1.432 1.432 0 00-2.721.186c-2.177 8.693-17.944 11.113-22.914 11.657C40.007 10.59 47.61 3 57 2.937zm-14.321 27.21v-7.633c6.172-.93 17.386-3.508 21.567-10.411a30.073 30.073 0 007.075 8.693v9.351c0 7.91-6.412 14.322-14.321 14.322-7.91 0-14.321-6.412-14.321-14.322zM57 67.855L46.975 54.493h2.864c.791 0 1.433-.64 1.433-1.432v-6.73a16.87 16.87 0 0011.456 0v6.73c0 .791.642 1.432 1.433 1.432h2.864L57 67.855z"/><path d="M48.407 27.283a2.864 2.864 0 100-5.728 2.864 2.864 0 000 5.728zm17.186 0a2.864 2.864 0 100-5.728 2.864 2.864 0 000 5.728zm-3.881 6.144a8.292 8.292 0 01-5.9 2.449h-1.676v2.864h1.675a11.14 11.14 0 007.934-3.28l-2.033-2.033zm-3.28-.415v-2.865h-2.306l2.306-6.702-2.72-.916-2.865 8.592c-.144.437-.07.917.2 1.29.253.355.653.576 1.089.6h4.296z"/></g><defs><clipPath id="clip0"><path fill="#fff" transform="translate(14)" d="M0 0h86v86H0z"/></clipPath></defs></svg>
